X: 03081
T: SARAH ELDER'S JIG
C: Bob McQuillen 22 May 77
B: Bob's Note Book 03 #81
R: jig
%D:1977
Z: 2020 John Chambers <jc:trillian.mit.edu>
M: 6/8
L: 1/8
K: D
A \
|: d2d AFA | GAB AFD |  dcd e2a | f2f def |\
|  gag gfe | fgf fed |1 agf efe | def ecA :|2 agf edc |
   d3- d2 |: A \
| FGA AGF | GAB B2A | ^GAB BAG | ABc cde |\
| f2f edc | dBd AFA |  Bcd ecA | D3- D2 :|
%%begintext align
%% With love always. I hope
%% you like this tune - Mac
%%endtext
